symbols/web/60fps_select/materialsymbolsoutlined/60fps_select_wght200grad200_24px.svg

<svg xmlns="http://www.w3.org/2000/svg" height="24" width="24"><path d="M8.55 13.75H6.525q-.95 0-1.6-.65-.65-.65-.65-1.625v-4.25q0-.975.65-1.625t1.6-.65h4.3V6.6h-4.3q-.275 0-.437.175-.163.175-.163.45v1.3H8.55q.95 0 1.613.65.662.65.662 1.625v.675q0 .975-.662 1.625-.663.65-1.613.65Zm-2.625-3.575v1.3q0 .275.163.45.162.175.437.175H8.55q.275 0 .45-.175t.175-.45V10.8q0-.275-.175-.45t-.45-.175Zm11.55 3.575H15.45q-.95 0-1.612-.65-.663-.65-.663-1.625v-4.25q0-.975.663-1.625.662-.65 1.612-.65h2.025q.95 0 1.6.65.65.65.65 1.625v4.25q0 .975-.65 1.625t-1.6.65Zm0-1.65q.275 0 .438-.175.162-.175.162-.45v-4.25q0-.275-.162-.45-.163-.175-.438-.175H15.45q-.275 0-.45.175t-.175.45v4.25q0 .275.175.45t.45.175ZM3.15 22.1v-4.7H4.3v4.7Zm3.525 0v-4.7h1.15v4.7Zm3.55 0v-4.7h1.15v4.7Zm3.525 0v-4.7h7.1v4.7Z"/></svg>

<svg xmlns="http://www.w3.org/2000/svg" height="24" width="24"><path d="M8.55 13.75H6.525Q5.575 13.75 4.925 13.1Q4.275 12.45 4.275 11.475V7.225Q4.275 6.25 4.925 5.6Q5.575 4.95 6.525 4.95H10.825V6.6H6.525Q6.25 6.6 6.088 6.775Q5.925 6.95 5.925 7.225V8.525H8.55Q9.5 8.525 10.163 9.175Q10.825 9.825 10.825 10.8V11.475Q10.825 12.45 10.163 13.1Q9.5 13.75 8.55 13.75ZM5.925 10.175V11.475Q5.925 11.75 6.088 11.925Q6.25 12.1 6.525 12.1H8.55Q8.825 12.1 9 11.925Q9.175 11.75 9.175 11.475V10.8Q9.175 10.525 9 10.35Q8.825 10.175 8.55 10.175ZM17.475 13.75H15.45Q14.5 13.75 13.838 13.1Q13.175 12.45 13.175 11.475V7.225Q13.175 6.25 13.838 5.6Q14.5 4.95 15.45 4.95H17.475Q18.425 4.95 19.075 5.6Q19.725 6.25 19.725 7.225V11.475Q19.725 12.45 19.075 13.1Q18.425 13.75 17.475 13.75ZM17.475 12.1Q17.75 12.1 17.913 11.925Q18.075 11.75 18.075 11.475V7.225Q18.075 6.95 17.913 6.775Q17.75 6.6 17.475 6.6H15.45Q15.175 6.6 15 6.775Q14.825 6.95 14.825 7.225V11.475Q14.825 11.75 15 11.925Q15.175 12.1 15.45 12.1ZM3.15 22.1V17.4H4.3V22.1ZM6.675 22.1V17.4H7.825V22.1ZM10.225 22.1V17.4H11.375V22.1ZM13.75 22.1V17.4H20.85V22.1Z"/></svg>
